svg_80x80/dart.svg

<svg viewBox="0 0 80 80" xmlns="http://www.w3.org/2000/svg">
<rect width="100%" height="100%" fill="white"/>
<path d="M21.0561 58.9422L10.104 48.0061C8.78142 46.649 8.02856 44.8369 8 42.9421C8.0995 41.9206 8.38414 40.9257 8.84 40.0061L18.952 18.942L21.0561 58.9422Z" fill="#01579B"/>
<path d="M58.5273 21.046L47.5833 10.102C46.3268 8.89062 44.6906 8.15023 42.9513 8.00597C41.6534 7.9551 40.3635 8.23013 39.1993 8.80597L18.9512 18.942L58.5273 21.046ZM34.1032 71.9982H60.6313V60.6302L40.8393 54.3102L22.7352 60.6302L34.1032 71.9982V71.9982Z" fill="#40C4FF"/>
<path d="M18.9512 53.0462C18.9512 56.4222 19.3752 57.2542 21.0552 58.9422L22.7352 60.6302H60.6313L42.1033 39.5741L18.9512 18.942V53.0462Z" fill="#29B6F6"/>
<path d="M52.6313 18.942H18.9512L60.6313 60.6222H71.9994V34.5181L58.5273 21.046C56.6313 19.15 54.9513 18.942 52.6313 18.942V18.942Z" fill="#01579B"/>
<path opacity="0.2" d="M21.4712 59.3582C19.7912 57.6702 19.3752 56.0062 19.3752 53.0462V19.366L18.9512 18.942V53.0462C18.9512 56.0062 18.9512 56.8222 21.4712 59.3582L22.7352 60.6222L21.4712 59.3582Z" fill="white"/>
<path opacity="0.2" d="M71.5839 34.1021V60.2062H60.2158L60.6318 60.6302H71.9999V34.5181L71.5839 34.1021Z" fill="#263238"/>
<path opacity="0.2" d="M58.5273 21.046C56.4393 18.958 54.7273 18.942 52.2153 18.942H18.9512L19.3752 19.366H52.2153C53.4713 19.366 56.6393 19.15 58.5273 21.046Z" fill="white"/>
</svg>

<svg xmlns="http://www.w3.org/2000/svg" viewBox="0 0 80 80">
  <rect width="100%" height="100%" fill="#fff"/>
  <path fill="#01579B" d="M21 59 10.2 48A7.4 7.4 0 0 1 8 43c.1-1 .4-2 .8-3L19 19l2 40Z"/>
  <path fill="#40C4FF" d="m58.5 21-11-10.9a7.6 7.6 0 0 0-4.5-2c-1.3-.1-2.6.1-3.8.7L19 19 58.5 21ZM34.1 72h26.5V60.6l-19.8-6.3-18 6.3L34 72Z"/>
  <path fill="#29B6F6" d="M19 53c0 3.4.4 4.3 2 6l1.7 1.6h38L42 39.6 19 18.9V53Z"/>
  <path fill="#01579B" d="M52.6 19H19l41.6 41.6H72v-26L58.5 21c-1.9-1.9-3.5-2-5.9-2Z"/>
  <path fill="#fff" d="M21.5 59.4c-1.7-1.7-2.1-3.4-2.1-6.4V19.4l-.4-.5V53c0 3 0 3.8 2.5 6.4l1.2 1.2-1.2-1.2Z" opacity=".2"/>
  <path fill="#263238" d="M71.6 34.1v26.1H60.2l.4.4H72v-26l-.4-.5Z" opacity=".2"/>
  <path fill="#fff" d="M58.5 21c-2-2-3.8-2-6.3-2H19l.4.4h32.8c1.3 0 4.4-.3 6.3 1.6Z" opacity=".2"/>
</svg>
